COLOR/places 16/16/user-desktop.svg

<svg height="16" viewBox="0 0 4.2333332 4.233333" width="16" xmlns="http://www.w3.org/2000/svg" xmlns:xlink="http://www.w3.org/1999/xlink"><linearGradient id="a" gradientTransform="matrix(.01017242 0 0 .01017213 -.397735 291.63717)" gradientUnits="userSpaceOnUse" x1="459.03448" x2="35.310345" y1="419.23337" y2="207.36522"><stop offset="0" stop-color="#fb7c38"/><stop offset="1" stop-color="#9b33ae"/></linearGradient><g transform="translate(0 -292.76669)"><path d="m1.0164426 293.06649c-.20071929-.00085-.35996306.003-.49498936.0254-.1351787.0225-.252727.0668-.34010011.15435-.0873759.0876-.13167068.2056-.15434157.34065-.0215335.12833-.0260209.28077-.0264443.46742-.00002258.01-.00056444.0171-.00056444.027v1.63932c0 .20051.004318.35909.0270086.49388.0226906.13481.0669233.25284.15434157.34011.0874183.0872.20512178.13115.3401001.15378.13497551.0226.29407817.027.49498931.027h1.1002256 1.1002256c.200911 0 .3600137-.004.4949892-.027.1349782-.0226.2526818-.0666.3401001-.15378.087419-.0873.1316566-.2053.1543416-.34011.022691-.13479.027009-.29337.027009-.49388v-1.63932c0-.01-.0005644-.0173-.0005644-.027-.0005644-.18665-.00491-.33909-.026445-.46742-.022662-.13505-.066965-.25308-.1543416-.34065-.087373-.0876-.2049214-.13187-.3401001-.15435-.1351759-.0225-.2945043-.0263-.4955424-.0254h-1.0996718z" fill="url(#a)" stroke-width="1.066666"/><path d="m.89181034 293.06649c-.18192592.00017-.3268046.004-.44525036.0266-.12070917.0222-.21911435.0637-.29137729.1426-.0722855.0789-.11034599.18681-.13062929.31871-.007225.0469-.0118533.0991-.0155504.15406-.00666.0992-.009003.21094-.009003.34217v1.70047c0 .20388.00429.36458.0245534.4966.0202636.13218.058245.24001.13046842.31924.0722347.0792.17087978.12097.29170468.14295.12061886.022.26759162.0265.45425327.0254l.086806.00009v-3.66885z" opacity=".3" stroke-width="1.066666"/><path d="m3.8417969 1.1328125c-.7586242-.0032126-1.3607581.0110417-1.8710938.0957031-.5109116.0850394-.9549271.2530867-1.28515622.5839844-.33023965.3310866-.49829912.7766842-.58398438 1.2871094-.08138646.4850268-.09800912 1.0621292-.09960937 1.7675781-.00008535.0377953-.00195313.0641452-.00195313.1015625v.5c0-.0374173.00186778-.0637672.00195313-.1015625.00160025-.7054489.01822291-1.2825513.09960937-1.7675781.08568526-.5104252.25374473-.9560228.58398438-1.2871094.33022912-.3308977.77424462-.498945 1.28515622-.5839844.5103357-.0846614 1.1124696-.0989157 1.8710938-.0957031h4.1582031 4.15625c.759829-.0034016 1.362146.0106638 1.873047.0957031.510912.0849638.954927.2528978 1.285156.5839844.330242.3309732.498333.7766842.583985 1.2871094.081392.4850268.097476 1.0621292.099609 1.7675781 0 .0366614.001953.0637672.001953.1015625v-.5c0-.0377953-.001953-.0649011-.001953-.1015625-.002133-.7054489-.018217-1.2825513-.099609-1.7675781-.085652-.5104252-.253743-.9561362-.583985-1.2871094-.330229-.3310866-.774244-.4990206-1.285156-.5839844-.510901-.0850393-1.113218-.0991047-1.873047-.0957031h-4.15625z" fill="#fff" opacity=".3" stroke-width="4.031493" transform="matrix(.26458332 0 0 .26458332 0 292.76669)"/><path d="m3.2169016 296.73532c.20072.00085.36004-.003.49506-.0253.13518-.0225.25266-.067.34003-.15451.0874-.0876.13185-.2055.15452-.34055.0215-.12833.0259-.28102.0263-.46767.00002-.01.00052-.017.00052-.0269v-.13229c0 .01-.0005.0169-.00052.0269-.00042.18665-.005.33934-.0263.46767-.0227.13505-.0671.25295-.15452.34055-.0874.0876-.20485.13201-.34003.15451-.13502.0224-.29434.0262-.49506.0253h-1.10019-1.09967c-.20104002.0009-.36040002-.003-.49558002-.0253-.13518-.0225-.25266-.0669-.34003-.15451-.0874-.0876-.13185-.2055-.15451-.34055-.0215-.12833-.0258-.28102-.0264-.46767 0-.01-.00052-.0169-.00052-.0269v.13229c0 .01.00052.0172.00052.0269.00057.18665.005.33934.0264.46767.0227.13505.0671.25298.15451.34055.0874.0876.20485.13203.34003.15451.13518.0225.29454.0262.49558002.0253h1.09967z" opacity=".2" stroke-width="1.066666"/></g></svg>

<?xml version="1.0" encoding="UTF-8" standalone="no"?>
<svg
   xmlns:dc="http://purl.org/dc/elements/1.1/"
   xmlns:cc="http://creativecommons.org/ns#"
   xmlns:rdf="http://www.w3.org/1999/02/22-rdf-syntax-ns#"
   xmlns:svg="http://www.w3.org/2000/svg"
   xmlns="http://www.w3.org/2000/svg"
   xmlns:sodipodi="http://sodipodi.sourceforge.net/DTD/sodipodi-0.dtd"
   xmlns:inkscape="http://www.inkscape.org/namespaces/inkscape"
   height="16"
   viewBox="0 0 4.2333332 4.233333"
   width="16"
   version="1.1"
   id="svg33"
   sodipodi:docname="user-desktop.svg"
   inkscape:version="0.92.4 (5da689c313, 2019-01-14)">
  <metadata
     id="metadata39">
    <rdf:RDF>
      <cc:Work
         rdf:about="">
        <dc:format>image/svg+xml</dc:format>
        <dc:type
           rdf:resource="http://purl.org/dc/dcmitype/StillImage" />
      </cc:Work>
    </rdf:RDF>
  </metadata>
  <defs
     id="defs37" />
  <sodipodi:namedview
     pagecolor="#ffffff"
     bordercolor="#666666"
     borderopacity="1"
     objecttolerance="10"
     gridtolerance="10"
     guidetolerance="10"
     inkscape:pageopacity="0"
     inkscape:pageshadow="2"
     inkscape:window-width="1920"
     inkscape:window-height="1016"
     id="namedview35"
     showgrid="false"
     inkscape:zoom="14.75"
     inkscape:cx="8"
     inkscape:cy="8"
     inkscape:window-x="0"
     inkscape:window-y="27"
     inkscape:window-maximized="1"
     inkscape:current-layer="g31" />
  <linearGradient
     id="a"
     gradientTransform="matrix(0 1 -1 0 572 -84)"
     gradientUnits="userSpaceOnUse"
     x1="329"
     x2="329"
     y1="239"
     y2="250">
    <stop
       offset="0"
       stop-color="#fff"
       id="stop2" />
    <stop
       offset=".125"
       stop-color="#fff"
       stop-opacity=".098039"
       id="stop4" />
    <stop
       offset=".92500001"
       stop-color="#fff"
       stop-opacity=".098039"
       id="stop6" />
    <stop
       offset="1"
       stop-color="#fff"
       stop-opacity=".498039"
       id="stop8" />
  </linearGradient>
  <clipPath
     id="b">
    <path
       d="m325.09646 237c-2.80769 0-3.10979.28839-3.09603 3.10176v3.89824 3.89824c-.0138 2.81337.28834 3.10176 3.09603 3.10176h5.8075c2.8077 0 3.09604-.28835 3.09604-3.10176v-3.89824-3.89824c0-2.8134-.28835-3.10176-3.09604-3.10176z"
       id="path11" />
  </clipPath>
  <linearGradient
     id="c"
     gradientTransform="matrix(0.01017242,0,0,0.01017213,-0.39773495,291.63717)"
     gradientUnits="userSpaceOnUse"
     x1="459.03448"
     x2="35.310345"
     y1="419.23337"
     y2="207.36522">
    <stop
       offset="0"
       stop-color="#fb7c38"
       id="stop14" />
    <stop
       offset="1"
       stop-color="#9b33ae"
       id="stop16" />
  </linearGradient>
  <g
     transform="translate(0 -292.76669)"
     id="g31">
    <path
       d="m 1.0164426,293.06649 c -0.20071929,-8.5e-4 -0.35996306,0.003 -0.49498936,0.0254 -0.1351787,0.0225 -0.252727,0.0668 -0.34010011,0.15435 -0.0873759,0.0876 -0.13167068,0.2056 -0.15434157,0.34065 -0.0215335,0.12833 -0.0260209,0.28077 -0.0264443,0.46742 -2.258e-5,0.01 -5.6444e-4,0.0171 -5.6444e-4,0.027 v 1.63932 c 0,0.20051 0.004318,0.35909 0.0270086,0.49388 0.0226906,0.13481 0.0669233,0.25284 0.15434157,0.34011 0.0874183,0.0872 0.20512178,0.13115 0.3401001,0.15378 0.13497551,0.0226 0.29407817,0.027 0.49498931,0.027 H 2.116668 3.2168936 c 0.200911,0 0.3600137,-0.004 0.4949892,-0.027 0.1349782,-0.0226 0.2526818,-0.0666 0.3401001,-0.15378 0.087419,-0.0873 0.1316566,-0.2053 0.1543416,-0.34011 0.022691,-0.13479 0.027009,-0.29337 0.027009,-0.49388 v -1.63932 c 0,-0.01 -5.644e-4,-0.0173 -5.644e-4,-0.027 -5.644e-4,-0.18665 -0.00491,-0.33909 -0.026445,-0.46742 -0.022662,-0.13505 -0.066965,-0.25308 -0.1543416,-0.34065 -0.087373,-0.0876 -0.2049214,-0.13187 -0.3401001,-0.15435 -0.1351759,-0.0225 -0.2945043,-0.0263 -0.4955424,-0.0254 H 2.1166682 Z"
       id="path21"
       style="fill:url(#c);stroke-width:1.06666589"
       inkscape:connector-curvature="0" />
    <path
       d="m 0.89181034,293.06649 c -0.18192592,1.7e-4 -0.3268046,0.004 -0.44525036,0.0266 -0.12070917,0.0222 -0.21911435,0.0637 -0.29137729,0.1426 -0.0722855,0.0789 -0.11034599,0.18681 -0.13062929,0.31871 -0.007225,0.0469 -0.0118533,0.0991 -0.0155504,0.15406 C 0.002343,293.80766 0,293.9194 0,294.05063 v 1.70047 c 0,0.20388 0.00429,0.36458 0.0245534,0.4966 0.0202636,0.13218 0.058245,0.24001 0.13046842,0.31924 0.0722347,0.0792 0.17087978,0.12097 0.29170468,0.14295 0.12061886,0.022 0.26759162,0.0265 0.45425327,0.0254 l 0.086806,9e-5 v -3.66885 z"
       id="path23"
       inkscape:connector-curvature="0"
       style="opacity:0.3;stroke-width:1.06666589" />
    <path
       style="fill:#ffffff;stroke-width:4.03149319;fill-opacity:1;opacity:0.3"
       d="M 3.8417969 1.1328125 C 3.0831727 1.1295999 2.4810388 1.1438542 1.9707031 1.2285156 C 1.4597915 1.313555 1.015776 1.4816023 0.68554688 1.8125 C 0.35530723 2.1435866 0.18724776 2.5891842 0.1015625 3.0996094 C 0.020176039 3.5846362 0.0035533771 4.1617386 0.001953125 4.8671875 C 0.0018677833 4.9049828 5.7824116e-19 4.9313327 0 4.96875 L 0 5.46875 C 5.7824116e-19 5.4313327 0.0018677833 5.4049828 0.001953125 5.3671875 C 0.0035533771 4.6617386 0.020176039 4.0846362 0.1015625 3.5996094 C 0.18724776 3.0891842 0.35530723 2.6435866 0.68554688 2.3125 C 1.015776 1.9816023 1.4597915 1.813555 1.9707031 1.7285156 C 2.4810388 1.6438542 3.0831727 1.6295999 3.8417969 1.6328125 L 8 1.6328125 L 12.15625 1.6328125 C 12.916079 1.6294109 13.518396 1.6434763 14.029297 1.7285156 C 14.540209 1.8134794 14.984224 1.9814134 15.314453 2.3125 C 15.644695 2.6434732 15.812786 3.0891842 15.898438 3.5996094 C 15.97983 4.0846362 15.995914 4.6617386 15.998047 5.3671875 C 15.998047 5.4038489 16 5.4309547 16 5.46875 L 16 4.96875 C 16 4.9309547 15.998047 4.9038489 15.998047 4.8671875 C 15.995914 4.1617386 15.97983 3.5846362 15.898438 3.0996094 C 15.812786 2.5891842 15.644695 2.1434732 15.314453 1.8125 C 14.984224 1.4814134 14.540209 1.3134794 14.029297 1.2285156 C 13.518396 1.1434763 12.916079 1.1294109 12.15625 1.1328125 L 8 1.1328125 L 3.8417969 1.1328125 z "
       transform="matrix(0.26458332,0,0,0.26458332,0,292.76669)"
       id="path846" />
    <path
       id="path855"
       d="m 3.2169016,296.73532 c 0.20072,8.5e-4 0.36004,-0.003 0.49506,-0.0253 0.13518,-0.0225 0.25266,-0.067 0.34003,-0.15451 0.0874,-0.0876 0.13185,-0.2055 0.15452,-0.34055 0.0215,-0.12833 0.0259,-0.28102 0.0263,-0.46767 2e-5,-0.01 5.2e-4,-0.017 5.2e-4,-0.0269 v -0.13229 c 0,0.01 -5e-4,0.0169 -5.2e-4,0.0269 -4.2e-4,0.18665 -0.005,0.33934 -0.0263,0.46767 -0.0227,0.13505 -0.0671,0.25295 -0.15452,0.34055 -0.0874,0.0876 -0.20485,0.13201 -0.34003,0.15451 -0.13502,0.0224 -0.29434,0.0262 -0.49506,0.0253 h -1.10019 -1.09967 c -0.20104002,9e-4 -0.36040002,-0.003 -0.49558002,-0.0253 -0.13518,-0.0225 -0.25266,-0.0669 -0.34003,-0.15451 -0.0874,-0.0876 -0.13185,-0.2055 -0.15451,-0.34055 -0.0215,-0.12833 -0.0258,-0.28102 -0.0264000015,-0.46767 0,-0.01 -5.200000043e-4,-0.0169 -5.200000043e-4,-0.0269 v 0.13229 c 0,0.01 5.200000043e-4,0.0172 5.200000043e-4,0.0269 5.700015e-4,0.18665 0.005000002,0.33934 0.0264000015,0.46767 0.0227,0.13505 0.0671,0.25298 0.15451,0.34055 0.0874,0.0876 0.20485,0.13203 0.34003,0.15451 0.13518,0.0225 0.29454,0.0262 0.49558002,0.0253 h 1.09967 z"
       style="opacity:0.2;fill:#000000;fill-opacity:1;stroke-width:1.06666589"
       inkscape:connector-curvature="0" />
  </g>
</svg>
